!!!OTL: 309. Abendgesang.
!!!COM: J. A. Naumann
!!!ODT: 1786
!!!ARE: Europa, Mitteleuropa, Deutschland
!!!SCT: B0309
!!!TXL: @@DE
!!!YEM: Copyright 1995, estate of Helmut Schaffrath.
**kern	**text
*ICvox	*
*Ivox	*
*clefG2	*
*M2/4	*
*k[b-e-a-]	*
*E-:	*
=1	=1
!LO:TX:a:t=Mäßig langſam.	!
{8.g	Wie-
16g	-der-
8f	-um
8f	hat
=2	=2
8e-	ſtil-
8e-	-le
4a-}	Nacht
=3	=3
{8.g	un-
16b-/	-ſern
16b-/L	Ball
16a-J	.
16cc/L	um-
16a-J	.
=4	=4
4g	-ge-
8f	-ben,
8r}	.
=5	=5
{8.g	wie-
16g	-der-
8f	-um
8f	ein
=6	=6
8e-	Tag
8e-	voll-
4a-}	-bracht
=7	=7
{8.g	von
16b-/	dem
16b-/L	Er-
16a-J	.
16cc/L	-den-
16a-J	.
=8	=8
4g	-le-
8f	-ben!
8r}	.
=9	=9
{8.b-	Freun-
16f	-de,
8f	o
8g	wie
=10	=10
16a-L	ſe-
16b-J	.
16cc/L	-lig
16a-J	.
8gL	iſt
8fJ}	.
=11	=11
{8.g	er
16g	auch
8g	uns
8an	ver-
=12	=12
16b-L	-floſ-
16cc	.
16dd	.
16ccJ	.
8b-	-ſen!
8r}	.
=13	=13
{8e-	Ja
8e-	er
8a-	floß,
8a-	von
=14	=14
8.g	Luſt
16g	ver-
4cc}	-ſüßt,
=15	=15
{8b-	uns
16ee-L	nicht
16b-J	.
16ddL	un-
16ccJ	.
16b-L	-ge-
16a-J	.
=16	=16
8gL	-noſ-
8fJ	.
8e-	-ſen.
8r}	.
==	==
!!!AGN: Geselligkeits - Lied, Freude, Freundschaft, Freimaurer - Gesang
!!!GTL: Lieder der Freude und Geseligkeit
!!!ONB: ESAC (Essen Associative Code) Database: BOEHME
!!!AMT: simple duple
!!!AIN: vox
!!!EED: Helmut Schaffrath
!!!EEV: 1.0
!!@@COMMENT:"Freimaurerlied von 1782. Mel. von J. Amadeus Nauman in Freimäurer-Lieder mit ganʒ
!!neuen Melodien von den Herrn Kapellmeiſtern Bach, Naumann und Schulʒ. Kopenhagen und Leipʒig 1786."
!!@@END:
!!!URL-scan: https://archive.org/details/BoehmeVtLieder1895/page/n259/mode/2up
!!!ENC: Anna Maria Matuszewska
!!!EEV: 2024/04/07
*-	*-
